icons/rancher-logo.svg

<?xml version="1.0" encoding="UTF-8"?>
<svg width="512px" height="78px" viewBox="0 0 512 78" version="1.1" xmlns="http://www.w3.org/2000/svg" xmlns:xlink="http://www.w3.org/1999/xlink" preserveAspectRatio="xMidYMid">
    <g>
        <path d="M101.618388,0 C102.687936,0 103.592937,2.87955056 103.592937,6.33501124 L103.592937,6.33501124 L103.592937,7.9804687 C103.757483,7.89819583 103.922029,7.89819583 104.168847,7.89819583 L139.217091,7.89819583 C142.672552,7.89819583 145.552102,10.7777464 145.552102,14.3154799 L145.552102,14.3154799 L145.552102,47.2246292 C145.552102,50.6800899 142.672552,53.5596404 139.217091,53.5596404 L139.217091,53.5596404 L122.186606,53.5596404 C118.731146,53.5596404 115.851595,50.6800899 115.851595,47.2246292 L115.851595,47.2246292 L115.851595,34.3077881 C114.288411,35.4596083 113.301136,37.2696116 113.301136,39.3264334 L113.301136,39.3264334 L113.301136,50.1041798 C113.301136,53.5596404 116.180687,56.439191 119.636147,56.439191 L119.636147,56.439191 L130.742985,56.439191 L130.742985,73.4696758 C130.742985,75.6087705 129.015255,77.3365008 126.87616,77.3365008 L126.87616,77.3365008 L105.97885,77.3365008 C103.839756,77.3365008 102.112025,75.6087705 102.112025,73.4696758 L102.112025,73.4696758 L102.112025,57.8378299 C102.112025,55.6987352 100.384295,53.9710048 98.2452003,53.9710048 L98.2452003,53.9710048 L46.1664716,53.9710048 C44.0273769,53.9710048 42.2996466,55.6987352 42.2996466,57.8378299 L42.2996466,57.8378299 L42.2996466,73.4696758 C42.2996466,75.6087705 40.5719162,77.3365008 38.4328215,77.3365008 L38.4328215,77.3365008 L17.5355117,77.3365008 C15.396417,77.3365008 13.6686867,75.6087705 13.6686867,73.4696758 L13.6686867,73.4696758 L13.6686867,28.3841413 L4.28957916,35.7886998 C3.87821479,36.1177913 3.30230468,36.0355185 2.97321319,35.6241541 L2.97321319,35.6241541 L0.258208374,32.415512 C-0.0708831184,32.0864205 -0.0708831184,31.5927833 0.175935501,31.2636918 L0.175935501,31.2636918 L13.9977782,10.1195634 C14.6559612,8.72092456 15.9723272,7.81592295 17.5355117,7.81592295 L17.5355117,7.81592295 L90.9229146,7.81592295 C93.308828,7.81592295 95.1188312,9.95501766 94.7074668,12.340931 L94.7074668,12.340931 L93.2265551,21.3086742 C92.8151907,23.6945875 94.6251939,25.8336822 97.0111073,25.8336822 L97.0111073,25.8336822 L111.820224,25.8336822 C113.712501,25.8336822 115.275685,24.5173162 115.604777,22.707313 C114.782048,23.0364045 113.712501,23.2009502 112.642953,23.2009502 L112.642953,23.2009502 L102.112025,23.2009502 C98.6565647,23.2009502 96.2706514,20.4036726 96.8465615,16.9482119 L96.8465615,16.9482119 L98.6565647,6.25273836 C99.2324748,2.79727769 100.548841,0 101.618388,0 Z M159.703037,1.77635684e-15 C160.772584,1.77635684e-15 162.08895,2.79727769 162.66486,6.25273836 L162.66486,6.25273836 L164.474863,16.9482119 C165.050773,20.4036726 162.66486,23.2009502 159.127127,23.2009502 L159.127127,23.2009502 L148.020289,23.2009502 L148.020289,15.4673002 L148.020289,15.4673002 L151.393476,15.4673002 C154.848937,15.4673002 157.728488,12.5877496 157.728488,9.13228892 L157.728488,9.13228892 L157.728488,6.33501124 C157.728488,2.87955056 158.633489,1.77635684e-15 159.703037,1.77635684e-15 Z" fill="#0075A8"></path>
        <path d="M348.601553,9.13228892 C365.220674,9.13228892 371.884777,18.2645778 370.074773,30.6055088 L356.911114,31.7573291 C358.309753,22.707313 354.772019,19.0873066 348.354735,19.0873066 C342.184269,19.0873066 337.165624,23.6123146 337.165624,38.3391589 C337.165624,53.8887319 342.595634,57.8378299 348.766099,57.8378299 C354.607473,57.8378299 359.297027,54.2178234 358.309753,46.730992 L370.650683,47.9650851 C371.555685,59.5655602 363.246125,68.0402169 348.025643,68.0402169 C332.558343,68.121939 322.603326,58.9896501 322.603326,38.256886 C322.603326,17.6063949 332.805162,9.13228892 348.601553,9.13228892 Z M201.991293,10.0372905 C213.180404,10.0372905 220.667236,15.4673002 220.667236,25.9159551 C220.667236,34.4723339 214.825862,39.573252 209.149033,41.3832552 C210.876764,42.7818941 212.110857,44.756443 213.098131,46.8132648 C213.319049,47.2627185 213.532914,47.715699 213.74312,48.1676997 L213.993831,48.709342 C215.94738,52.9440046 217.697794,56.9328283 222.065875,56.9328283 C222.92248,56.9328283 223.699808,56.7346332 224.095202,56.6133844 L239.754542,10.0372905 L254.070022,10.0372905 L273.321875,67.0523917 L259.006395,67.0523917 L255.468661,56.2746453 L236.381354,56.2746453 L232.925894,67.0523917 L221.116097,67.0527972 C220.064293,67.223076 218.758578,67.3814831 217.540866,67.3814831 C210.794491,67.3814831 206.927666,64.7487512 202.896295,55.6987352 C202.448365,54.6535649 201.961725,53.3982547 201.432074,52.1120174 L201.202434,51.5594019 C199.731216,48.0541294 197.938593,44.5096244 195.738555,44.5096244 L192.529913,44.5096244 L192.529913,67.0523917 L178.378979,67.0523917 L178.378979,10.0372905 L201.991293,10.0372905 Z M489.617258,10.0372905 C500.806369,10.0372905 508.2932,15.4673002 508.2932,25.9159551 C508.2932,34.4723339 502.451826,39.573252 496.774998,41.3832552 C498.502728,42.7818941 499.736822,44.756443 500.724096,46.8132648 C500.945014,47.2627185 501.158878,47.715699 501.369085,48.1676997 L501.619795,48.709342 C503.573344,52.9440046 505.323759,56.9328283 509.691839,56.9328283 C510.925932,56.9328283 511.99548,56.5214639 511.99548,56.5214639 L510.843659,66.6410273 C510.843659,66.6410273 507.799563,67.3814831 505.166831,67.3814831 C498.420456,67.3814831 494.553631,64.7487512 490.52226,55.6987352 C490.07433,54.6535649 489.58769,53.3982547 489.058038,52.1120174 L488.828399,51.5594019 C487.357181,48.0541294 485.564557,44.5096244 483.36452,44.5096244 L480.155878,44.5096244 L480.155878,67.0523917 L466.004944,67.0523917 L466.004944,10.0372905 L489.617258,10.0372905 Z M387.681168,10.0372905 L387.681168,31.5927833 L404.958472,31.5927833 L404.958472,10.0372905 L419.109406,10.0372905 L419.109406,67.1346645 L404.958472,67.1346645 L404.958472,42.9464398 L387.681168,42.9464398 L387.681168,67.1346645 L373.530234,67.1346645 L373.530234,10.0372905 L387.681168,10.0372905 Z M462.549483,10.0372905 L462.549483,20.5682183 L438.854895,20.5682183 L438.854895,32.8268764 L458.682658,32.8268764 L458.682658,43.2755313 L438.854895,43.2755313 L438.854895,56.6037368 L463.372212,56.6037368 L463.372212,67.1346645 L424.786234,67.1346645 L424.786234,10.0372905 L462.549483,10.0372905 Z M288.95372,10.0372905 L303.927383,38.3391589 C305.161476,40.8073451 306.889207,45.0855345 308.205573,48.4587223 L308.534664,48.4587223 C308.370118,45.2500803 307.958754,40.7250722 307.958754,37.3518844 L307.958754,10.0372905 L319.559229,10.0372905 L319.559229,67.0523917 L304.750112,67.0523917 L289.200539,38.8327961 C287.8019,36.2823371 286.238716,32.5800578 285.086895,29.5359615 L284.757804,29.5359615 C285.004622,32.7446035 285.415987,36.5291557 285.415987,39.6555249 L285.415987,67.0523917 L273.815512,67.0523917 L273.815512,10.0372905 L288.95372,10.0372905 Z M246.171826,24.023679 L245.842735,24.023679 C245.842735,24.023679 245.020006,29.865053 243.70364,33.731878 L239.754542,45.8259904 L252.0132,45.8259904 L248.146375,33.8141509 C246.883739,29.9473258 246.226652,24.4909313 246.175116,24.0519534 L246.171826,24.023679 L246.171826,24.023679 Z M199.440834,20.3213997 L192.612186,20.3213997 L192.612186,34.3077881 L197.713104,34.3077881 C201.744475,34.3077881 206.516301,33.073695 206.516301,26.9855024 C206.516301,21.9668571 203.307659,20.3213997 199.440834,20.3213997 Z M486.984526,20.3213997 L480.155878,20.3213997 L480.155878,34.3077881 L485.256796,34.3077881 C489.288167,34.3077881 494.059993,33.073695 494.059993,26.9855024 C494.059993,21.9668571 490.851351,20.3213997 486.984526,20.3213997 Z" fill="#59595B"></path>
    </g>
</svg>

<svg xmlns="http://www.w3.org/2000/svg" viewBox="0 0 511.995 77.337">
  <path fill="#0075a8" d="M101.618 0c1.07 0 1.975 2.88 1.975 6.335V7.98c.164-.082.329-.082.576-.082h35.048c3.456 0 6.335 2.88 6.335 6.417v32.91c0 3.455-2.88 6.335-6.335 6.335h-17.03c-3.456 0-6.335-2.88-6.335-6.335V34.308c-1.564 1.152-2.55 2.962-2.55 5.018v10.778c0 3.456 2.879 6.335 6.334 6.335h11.107v17.03a3.862 3.862 0 0 1-3.867 3.868H105.98a3.862 3.862 0 0 1-3.867-3.867V57.838a3.862 3.862 0 0 0-3.867-3.867H46.166a3.862 3.862 0 0 0-3.866 3.867V73.47a3.862 3.862 0 0 1-3.867 3.867H17.536a3.862 3.862 0 0 1-3.867-3.867V28.384l-9.38 7.405c-.41.329-.987.247-1.316-.165L.258 32.416a.881.881 0 0 1-.082-1.152L13.998 10.12c.658-1.4 1.974-2.304 3.538-2.304h73.387c2.386 0 4.196 2.139 3.784 4.525l-1.48 8.968c-.412 2.386 1.398 4.525 3.784 4.525h14.81c1.892 0 3.455-1.317 3.784-3.127-.823.33-1.892.494-2.962.494h-10.531c-3.455 0-5.841-2.797-5.265-6.253l1.81-10.695C99.232 2.797 100.549 0 101.618 0zm58.085 0c1.07 0 2.386 2.797 2.962 6.253l1.81 10.695c.576 3.456-1.81 6.253-5.348 6.253H148.02v-7.734h3.373c3.456 0 6.335-2.88 6.335-6.335V6.335c0-3.455.905-6.335 1.975-6.335z"/>
  <path fill="#59595b" d="M348.602 9.132c16.619 0 23.283 9.133 21.473 21.474l-13.164 1.151c1.399-9.05-2.139-12.67-8.556-12.67-6.17 0-11.19 4.525-11.19 19.252 0 15.55 5.43 19.499 11.601 19.499 5.841 0 10.531-3.62 9.544-11.107l12.34 1.234c.906 11.6-7.404 20.075-22.624 20.075-15.468.082-25.423-9.05-25.423-29.783 0-20.65 10.202-29.125 25.999-29.125zm-146.61.905c11.188 0 18.675 5.43 18.675 15.879 0 8.556-5.841 13.657-11.518 15.467 1.728 1.399 2.962 3.373 3.95 5.43.22.45.434.903.644 1.355l.25.541c1.954 4.235 3.705 8.224 8.073 8.224.856 0 1.634-.198 2.03-.32l15.659-46.576h14.315l19.252 57.015h-14.316l-3.537-10.777H236.38l-3.455 10.777h-11.81c-1.052.171-2.357.33-3.575.33-6.747 0-10.613-2.633-14.645-11.683-.448-1.045-.934-2.3-1.464-3.587l-.23-.553c-1.47-3.505-3.263-7.05-5.463-7.05h-3.21v22.543h-14.15V10.037zm287.625 0c11.19 0 18.676 5.43 18.676 15.879 0 8.556-5.841 13.657-11.518 15.467 1.728 1.399 2.962 3.373 3.95 5.43.22.45.434.903.644 1.355l.25.541c1.954 4.235 3.705 8.224 8.073 8.224 1.234 0 2.303-.412 2.303-.412l-1.151 10.12s-3.044.74-5.677.74c-6.747 0-10.613-2.632-14.645-11.682-.448-1.045-.934-2.3-1.464-3.587l-.23-.553c-1.47-3.505-3.263-7.05-5.463-7.05h-3.21v22.543h-14.15V10.037zm-101.936 0v21.556h17.277V10.037h14.151v57.098h-14.15V42.946H387.68v24.189h-14.15V10.037zm74.868 0v10.531h-23.694v12.259h19.828v10.449h-19.828v13.328h24.517v10.53h-38.586V10.038zm-173.595 0 14.973 28.302c1.234 2.468 2.962 6.747 4.279 10.12h.329c-.165-3.209-.576-7.734-.576-11.107V10.037h11.6v57.015H304.75l-15.55-28.22c-1.398-2.55-2.961-6.252-4.113-9.296h-.33c.248 3.209.659 6.993.659 10.12v27.396h-11.6V10.037zm-42.782 13.987h-.33s-.822 5.841-2.138 9.708l-3.95 12.094h12.26l-3.868-12.012c-1.262-3.867-1.92-9.323-1.97-9.762l-.004-.028zM199.44 20.32h-6.829v13.987h5.101c4.031 0 8.803-1.234 8.803-7.322 0-5.02-3.208-6.665-7.075-6.665zm287.544 0h-6.83v13.987h5.102c4.031 0 8.803-1.234 8.803-7.322 0-5.02-3.209-6.665-7.075-6.665z"/>
</svg>
